groups/aromatics/chrysene.svg

<?xml version='1.0' encoding='iso-8859-1'?>
<svg version='1.1' baseProfile='full'
              xmlns='http://www.w3.org/2000/svg'
                      xmlns:rdkit='http://www.rdkit.org/xml'
                      xmlns:xlink='http://www.w3.org/1999/xlink'
                  xml:space='preserve'
width='256px' height='256px' viewBox='0 0 256 256'>
<!-- END OF HEADER -->
<rect style='opacity:1.0;fill:#FFFFFF;stroke:none' width='256.0' height='256.0' x='0.0' y='0.0'> </rect>
<path class='bond-0 atom-0 atom-1' d='M 20.9,177.3 L 48.6,161.2' style='fill:none;fill-rule:evenodd;stroke:#000000;stroke-width:2.0px;stroke-linecap:butt;stroke-linejoin:miter;stroke-opacity:1' />
<path class='bond-1 atom-1 atom-2' d='M 48.6,161.2 L 48.5,129.1' style='fill:none;fill-rule:evenodd;stroke:#000000;stroke-width:2.0px;stroke-linecap:butt;stroke-linejoin:miter;stroke-opacity:1' />
<path class='bond-1 atom-1 atom-2' d='M 53.4,158.4 L 53.3,131.9' style='fill:none;fill-rule:evenodd;stroke:#000000;stroke-width:2.0px;stroke-linecap:butt;stroke-linejoin:miter;stroke-opacity:1' />
<path class='bond-2 atom-2 atom-3' d='M 48.5,129.1 L 76.2,113.0' style='fill:none;fill-rule:evenodd;stroke:#000000;stroke-width:2.0px;stroke-linecap:butt;stroke-linejoin:miter;stroke-opacity:1' />
<path class='bond-3 atom-3 atom-4' d='M 76.2,113.0 L 104.0,128.9' style='fill:none;fill-rule:evenodd;stroke:#000000;stroke-width:2.0px;stroke-linecap:butt;stroke-linejoin:miter;stroke-opacity:1' />
<path class='bond-3 atom-3 atom-4' d='M 76.2,118.6 L 99.2,131.7' style='fill:none;fill-rule:evenodd;stroke:#000000;stroke-width:2.0px;stroke-linecap:butt;stroke-linejoin:miter;stroke-opacity:1' />
<path class='bond-4 atom-4 atom-5' d='M 104.0,128.9 L 104.1,161.0' style='fill:none;fill-rule:evenodd;stroke:#000000;stroke-width:2.0px;stroke-linecap:butt;stroke-linejoin:miter;stroke-opacity:1' />
<path class='bond-5 atom-5 atom-6' d='M 104.1,161.0 L 76.4,177.1' style='fill:none;fill-rule:evenodd;stroke:#000000;stroke-width:2.0px;stroke-linecap:butt;stroke-linejoin:miter;stroke-opacity:1' />
<path class='bond-5 atom-5 atom-6' d='M 99.3,158.2 L 76.4,171.6' style='fill:none;fill-rule:evenodd;stroke:#000000;stroke-width:2.0px;stroke-linecap:butt;stroke-linejoin:miter;stroke-opacity:1' />
<path class='bond-6 atom-5 atom-7' d='M 104.1,161.0 L 132.0,176.9' style='fill:none;fill-rule:evenodd;stroke:#000000;stroke-width:2.0px;stroke-linecap:butt;stroke-linejoin:miter;stroke-opacity:1' />
<path class='bond-7 atom-7 atom-8' d='M 132.0,176.9 L 159.7,160.8' style='fill:none;fill-rule:evenodd;stroke:#000000;stroke-width:2.0px;stroke-linecap:butt;stroke-linejoin:miter;stroke-opacity:1' />
<path class='bond-7 atom-7 atom-8' d='M 131.9,171.4 L 154.8,158.0' style='fill:none;fill-rule:evenodd;stroke:#000000;stroke-width:2.0px;stroke-linecap:butt;stroke-linejoin:miter;stroke-opacity:1' />
<path class='bond-8 atom-8 atom-9' d='M 159.7,160.8 L 159.5,128.7' style='fill:none;fill-rule:evenodd;stroke:#000000;stroke-width:2.0px;stroke-linecap:butt;stroke-linejoin:miter;stroke-opacity:1' />
<path class='bond-9 atom-9 atom-10' d='M 159.5,128.7 L 131.7,112.8' style='fill:none;fill-rule:evenodd;stroke:#000000;stroke-width:2.0px;stroke-linecap:butt;stroke-linejoin:miter;stroke-opacity:1' />
<path class='bond-9 atom-9 atom-10' d='M 154.7,131.5 L 131.7,118.4' style='fill:none;fill-rule:evenodd;stroke:#000000;stroke-width:2.0px;stroke-linecap:butt;stroke-linejoin:miter;stroke-opacity:1' />
<path class='bond-10 atom-10 atom-11' d='M 131.7,112.8 L 131.6,80.7' style='fill:none;fill-rule:evenodd;stroke:#000000;stroke-width:2.0px;stroke-linecap:butt;stroke-linejoin:miter;stroke-opacity:1' />
<path class='bond-11 atom-11 atom-12' d='M 131.6,80.7 L 159.3,64.6' style='fill:none;fill-rule:evenodd;stroke:#000000;stroke-width:2.0px;stroke-linecap:butt;stroke-linejoin:miter;stroke-opacity:1' />
<path class='bond-11 atom-11 atom-12' d='M 136.4,83.5 L 159.3,70.2' style='fill:none;fill-rule:evenodd;stroke:#000000;stroke-width:2.0px;stroke-linecap:butt;stroke-linejoin:miter;stroke-opacity:1' />
<path class='bond-12 atom-12 atom-13' d='M 159.3,64.6 L 187.1,80.5' style='fill:none;fill-rule:evenodd;stroke:#000000;stroke-width:2.0px;stroke-linecap:butt;stroke-linejoin:miter;stroke-opacity:1' />
<path class='bond-13 atom-13 atom-14' d='M 187.1,80.5 L 187.3,112.6' style='fill:none;fill-rule:evenodd;stroke:#000000;stroke-width:2.0px;stroke-linecap:butt;stroke-linejoin:miter;stroke-opacity:1' />
<path class='bond-13 atom-13 atom-14' d='M 182.3,83.3 L 182.4,109.8' style='fill:none;fill-rule:evenodd;stroke:#000000;stroke-width:2.0px;stroke-linecap:butt;stroke-linejoin:miter;stroke-opacity:1' />
<path class='bond-14 atom-14 atom-15' d='M 187.3,112.6 L 215.1,128.5' style='fill:none;fill-rule:evenodd;stroke:#000000;stroke-width:2.0px;stroke-linecap:butt;stroke-linejoin:miter;stroke-opacity:1' />
<path class='bond-15 atom-15 atom-16' d='M 215.1,128.5 L 242.8,112.4' style='fill:none;fill-rule:evenodd;stroke:#000000;stroke-width:2.0px;stroke-linecap:butt;stroke-linejoin:miter;stroke-opacity:1' />
<path class='bond-15 atom-15 atom-16' d='M 215.1,123.0 L 238.0,109.6' style='fill:none;fill-rule:evenodd;stroke:#000000;stroke-width:2.0px;stroke-linecap:butt;stroke-linejoin:miter;stroke-opacity:1' />
<path class='bond-16 atom-16 atom-17' d='M 242.8,112.4 L 242.7,80.3' style='fill:none;fill-rule:evenodd;stroke:#000000;stroke-width:2.0px;stroke-linecap:butt;stroke-linejoin:miter;stroke-opacity:1' />
<path class='bond-17 atom-17 atom-18' d='M 242.7,80.3 L 214.9,64.4' style='fill:none;fill-rule:evenodd;stroke:#000000;stroke-width:2.0px;stroke-linecap:butt;stroke-linejoin:miter;stroke-opacity:1' />
<path class='bond-17 atom-17 atom-18' d='M 237.9,83.1 L 214.9,70.0' style='fill:none;fill-rule:evenodd;stroke:#000000;stroke-width:2.0px;stroke-linecap:butt;stroke-linejoin:miter;stroke-opacity:1' />
<path class='bond-18 atom-6 atom-1' d='M 76.4,177.1 L 48.6,161.2' style='fill:none;fill-rule:evenodd;stroke:#000000;stroke-width:2.0px;stroke-linecap:butt;stroke-linejoin:miter;stroke-opacity:1' />
<path class='bond-19 atom-10 atom-4' d='M 131.7,112.8 L 104.0,128.9' style='fill:none;fill-rule:evenodd;stroke:#000000;stroke-width:2.0px;stroke-linecap:butt;stroke-linejoin:miter;stroke-opacity:1' />
<path class='bond-20 atom-14 atom-9' d='M 187.3,112.6 L 159.5,128.7' style='fill:none;fill-rule:evenodd;stroke:#000000;stroke-width:2.0px;stroke-linecap:butt;stroke-linejoin:miter;stroke-opacity:1' />
<path class='bond-21 atom-18 atom-13' d='M 214.9,64.4 L 187.1,80.5' style='fill:none;fill-rule:evenodd;stroke:#000000;stroke-width:2.0px;stroke-linecap:butt;stroke-linejoin:miter;stroke-opacity:1' />
<path d='M 48.5,130.7 L 48.5,129.1 L 49.8,128.3' style='fill:none;stroke:#000000;stroke-width:2.0px;stroke-linecap:butt;stroke-linejoin:miter;stroke-miterlimit:10;stroke-opacity:1;' />
<path d='M 74.8,113.8 L 76.2,113.0 L 77.6,113.8' style='fill:none;stroke:#000000;stroke-width:2.0px;stroke-linecap:butt;stroke-linejoin:miter;stroke-miterlimit:10;stroke-opacity:1;' />
<path d='M 77.8,176.3 L 76.4,177.1 L 75.0,176.3' style='fill:none;stroke:#000000;stroke-width:2.0px;stroke-linecap:butt;stroke-linejoin:miter;stroke-miterlimit:10;stroke-opacity:1;' />
<path d='M 130.6,176.1 L 132.0,176.9 L 133.3,176.1' style='fill:none;stroke:#000000;stroke-width:2.0px;stroke-linecap:butt;stroke-linejoin:miter;stroke-miterlimit:10;stroke-opacity:1;' />
<path d='M 158.3,161.6 L 159.7,160.8 L 159.7,159.2' style='fill:none;stroke:#000000;stroke-width:2.0px;stroke-linecap:butt;stroke-linejoin:miter;stroke-miterlimit:10;stroke-opacity:1;' />
<path d='M 131.6,82.3 L 131.6,80.7 L 133.0,79.9' style='fill:none;stroke:#000000;stroke-width:2.0px;stroke-linecap:butt;stroke-linejoin:miter;stroke-miterlimit:10;stroke-opacity:1;' />
<path d='M 157.9,65.4 L 159.3,64.6 L 160.7,65.4' style='fill:none;stroke:#000000;stroke-width:2.0px;stroke-linecap:butt;stroke-linejoin:miter;stroke-miterlimit:10;stroke-opacity:1;' />
<path d='M 213.7,127.7 L 215.1,128.5 L 216.5,127.7' style='fill:none;stroke:#000000;stroke-width:2.0px;stroke-linecap:butt;stroke-linejoin:miter;stroke-miterlimit:10;stroke-opacity:1;' />
<path d='M 241.4,113.2 L 242.8,112.4 L 242.8,110.8' style='fill:none;stroke:#000000;stroke-width:2.0px;stroke-linecap:butt;stroke-linejoin:miter;stroke-miterlimit:10;stroke-opacity:1;' />
<path d='M 242.7,81.9 L 242.7,80.3 L 241.3,79.5' style='fill:none;stroke:#000000;stroke-width:2.0px;stroke-linecap:butt;stroke-linejoin:miter;stroke-miterlimit:10;stroke-opacity:1;' />
<path d='M 216.2,65.2 L 214.9,64.4 L 213.5,65.2' style='fill:none;stroke:#000000;stroke-width:2.0px;stroke-linecap:butt;stroke-linejoin:miter;stroke-miterlimit:10;stroke-opacity:1;' />
<path class='atom-1' d='M28.9308,191.192 C29.9701,190.587 29.1636,189.201 28.1243,189.806 C27.085,190.411 26.2785,189.025 27.3177,188.42 C28.357,187.816 27.5505,186.43 26.5112,187.035 C25.4719,187.64 24.6654,186.254 25.7047,185.649 C26.7439,185.044 25.9374,183.658 24.8981,184.263 C23.8588,184.868 23.0523,183.482 24.0916,182.878 C25.1309,182.273 24.3243,180.887 23.285,181.492 C22.2457,182.097 21.4392,180.711 22.4785,180.106 C23.5178,179.501 22.7112,178.116 21.672,178.72 C20.6327,179.325 19.8261,177.94 20.8654,177.335 C21.9047,176.73 21.0982,175.344 20.0589,175.949 C19.0196,176.554 18.213,175.168 19.2523,174.563 C20.2916,173.958 19.4851,172.573 18.4458,173.178 C17.4065,173.783 16.6,172.397 17.6392,171.792 C18.6785,171.187 17.872,169.801 16.8327,170.406 C15.7934,171.011 14.9869,169.625 16.0262,169.02 C17.0655,168.416 16.2589,167.03 15.2196,167.635 C14.1803,168.24 13.3738,166.854 14.4131,166.249 C15.4524,165.644 14.6458,164.258 13.6065,164.863 C12.5673,165.468 11.7607,164.083 12.8,163.478' style='fill:none;stroke:#7F7F7F;stroke-width:2.0px;stroke-linecap:butt;stroke-linejoin:miter;stroke-opacity:1' />
</svg>

<svg height="256" viewBox="0 0 256 256" width="256" xmlns="http://www.w3.org/2000/svg"><path d="m0 0h256v256h-256z" fill="#fff"/><g fill="none" stroke-width="2"><path d="m20.9 177.3 27.7-16.1" stroke="#000"/><path d="m48.6 161.2-.1-32.1" stroke="#000"/><path d="m53.4 158.4-.1-26.5" stroke="#000"/><path d="m48.5 129.1 27.7-16.1" stroke="#000"/><path d="m76.2 113 27.8 15.9" stroke="#000"/><path d="m76.2 118.6 23 13.1" stroke="#000"/><path d="m104 128.9.1 32.1" stroke="#000"/><path d="m104.1 161-27.7 16.1" stroke="#000"/><path d="m99.3 158.2-22.9 13.4" stroke="#000"/><path d="m104.1 161 27.9 15.9" stroke="#000"/><path d="m132 176.9 27.7-16.1" stroke="#000"/><path d="m131.9 171.4 22.9-13.4" stroke="#000"/><path d="m159.7 160.8-.2-32.1" stroke="#000"/><path d="m159.5 128.7-27.8-15.9" stroke="#000"/><path d="m154.7 131.5-23-13.1" stroke="#000"/><path d="m131.7 112.8-.1-32.1" stroke="#000"/><path d="m131.6 80.7 27.7-16.1" stroke="#000"/><path d="m136.4 83.5 22.9-13.3" stroke="#000"/><path d="m159.3 64.6 27.8 15.9" stroke="#000"/><path d="m187.1 80.5.2 32.1" stroke="#000"/><path d="m182.3 83.3.1 26.5" stroke="#000"/><path d="m187.3 112.6 27.8 15.9" stroke="#000"/><path d="m215.1 128.5 27.7-16.1" stroke="#000"/><path d="m215.1 123 22.9-13.4" stroke="#000"/><path d="m242.8 112.4-.1-32.1" stroke="#000"/><path d="m242.7 80.3-27.8-15.9" stroke="#000"/><path d="m237.9 83.1-23-13.1" stroke="#000"/><path d="m76.4 177.1-27.8-15.9" stroke="#000"/><path d="m131.7 112.8-27.7 16.1" stroke="#000"/><path d="m187.3 112.6-27.8 16.1" stroke="#000"/><path d="m214.9 64.4-27.8 16.1" stroke="#000"/><path d="m48.5 130.7v-1.6l1.3-.8" stroke="#000" stroke-miterlimit="10"/><path d="m74.8 113.8 1.4-.8 1.4.8" stroke="#000" stroke-miterlimit="10"/><path d="m77.8 176.3-1.4.8-1.4-.8" stroke="#000" stroke-miterlimit="10"/><path d="m130.6 176.1 1.4.8 1.3-.8" stroke="#000" stroke-miterlimit="10"/><path d="m158.3 161.6 1.4-.8v-1.6" stroke="#000" stroke-miterlimit="10"/><path d="m131.6 82.3v-1.6l1.4-.8" stroke="#000" stroke-miterlimit="10"/><path d="m157.9 65.4 1.4-.8 1.4.8" stroke="#000" stroke-miterlimit="10"/><path d="m213.7 127.7 1.4.8 1.4-.8" stroke="#000" stroke-miterlimit="10"/><path d="m241.4 113.2 1.4-.8v-1.6" stroke="#000" stroke-miterlimit="10"/><path d="m242.7 81.9v-1.6l-1.4-.8" stroke="#000" stroke-miterlimit="10"/><path d="m216.2 65.2-1.3-.8-1.4.8" stroke="#000" stroke-miterlimit="10"/><path d="m28.931 191.192c1.039-.605.233-1.991-.807-1.386-1.039.605-1.845-.781-.806-1.386 1.039-.604.233-1.99-.807-1.385-1.039.605-1.846-.781-.806-1.386 1.039-.605.232-1.991-.807-1.386s-1.846-.781-.806-1.385c1.039-.605.232-1.991-.807-1.386s-1.846-.781-.806-1.386c1.039-.605.232-1.99-.807-1.386-1.039.605-1.846-.78-.807-1.385 1.04-.605.233-1.991-.806-1.386s-1.846-.781-.807-1.386c1.04-.605.233-1.99-.806-1.385s-1.846-.781-.807-1.386c1.04-.605.233-1.991-.806-1.386-1.04.605-1.846-.781-.807-1.386 1.04-.604.233-1.99-.806-1.385-1.04.605-1.846-.781-.807-1.386s.233-1.991-.806-1.386c-1.04.605-1.846-.78-.807-1.385" stroke="#7f7f7f"/></g></svg>
